X:1
T:Farfrom Home
L:1/8
M:2/2
I:linebreak $
K:G
V:1 treble nm="Voice" snm="Voice"
V:1
"G" GEDE G2 G2 | B2 BA Bc d2 | GEDE G2 GB | AGAB A2 G2 |$ GEDE G2 G2 | B2 BA Bc d2 | edef gedc | %7
 BGAF G4 ::$ g3 e f3 d | edef ed B2 | gedB G2 GB | AGAB AG E2 |$ GEDE G2 GA | B2 BA Bc d2 | %14
 edef gc | BGAF G4 :| %16
